svgs/duotone/ban-smoking.svg

<svg xmlns="http://www.w3.org/2000/svg" viewBox="0 0 512 512"><!-- Font Awesome Pro 6.0.0-alpha2 by @fontawesome - https://fontawesome.com License - https://fontawesome.com/license (Commercial License) --><defs><style>.fa-secondary{opacity:.4}</style></defs><path d="M112 224C103.25 224 96 231.25 96 240V304C96 312.75 103.25 320 112 320H229.5L133.5 224H112ZM400 224H269.125L301.125 256H384V288H333.125L365.125 320H400C408.75 320 416 312.75 416 304V240C416 231.25 408.75 224 400 224ZM319.445 160C335.07 160 348.07 171.25 350.82 185.875C351.57 189.5 354.82 192 358.57 192H374.695C379.695 192 383.445 187.5 382.695 182.625C378.07 151.75 351.57 128 319.445 128C303.82 128 290.82 116.75 288.07 102.125C287.32 98.5 284.07 96 280.32 96H264.07C259.07 96 255.445 100.5 256.07 105.375C260.695 136.25 287.32 160 319.445 160Z" class="fa-secondary"/><path d="M256 0C114.625 0 0 114.625 0 256S114.625 512 256 512S512 397.375 512 256S397.375 0 256 0ZM256 448C150.125 448 64 361.875 64 256C64 214.625 77.25 176.25 99.75 144.875L367.125 412.25C335.75 434.75 297.375 448 256 448ZM412.25 367.125L144.875 99.75C176.25 77.25 214.625 64 256 64C361.875 64 448 150.125 448 256C448 297.375 434.75 335.75 412.25 367.125Z" class="fa-primary"/></svg>

<svg xmlns="http://www.w3.org/2000/svg" viewBox="0 0 512 512"><!--! Font Awesome Pro 6.0.0-alpha3 by @fontawesome - https://fontawesome.com License - https://fontawesome.com/license (Commercial License) --><defs><style>.fa-secondary{opacity:.4}</style></defs><path class="fa-primary" d="M256 0C114.6 0 0 114.6 0 256s114.6 256 256 256s256-114.6 256-256S397.4 0 256 0zM256 448c-105.9 0-192-86.13-192-192c0-41.38 13.25-79.75 35.75-111.1l267.4 267.4C335.8 434.8 297.4 448 256 448zM412.3 367.1L144.9 99.75C176.3 77.25 214.6 64 256 64C361.9 64 448 150.1 448 256C448 297.4 434.8 335.8 412.3 367.1z"/><path class="fa-secondary" d="M112 224C103.3 224 96 231.3 96 240v64C96 312.8 103.3 320 112 320h117.5l-96-96H112zM400 224h-130.8l32 32H384v32h-50.81l32 32H400c8.75 0 16-7.25 16-16v-64C416 231.3 408.8 224 400 224zM319.4 160c15.62 0 28.62 11.25 31.38 25.88C351.6 189.5 354.8 192 358.6 192h16.12c5 0 8.75-4.5 8-9.375C378.1 151.8 351.6 128 319.4 128c-15.62 0-28.62-11.25-31.38-25.88C287.3 98.5 284.1 96 280.3 96h-16.29c-5 0-8.59 4.5-7.965 9.375C260.7 136.3 287.3 160 319.4 160z"/></svg>
